_includes/assets/images/resources/tb-blog_cover.svg

<svg width="201" height="305" viewBox="0 0 201 305" fill="none" xmlns="http://www.w3.org/2000/svg">
<rect width="201" height="305" fill="#E03131"/>
<path fill-rule="evenodd" clip-rule="evenodd" d="M140.182 211.968C128.42 219.818 114.595 224.005 100.454 224C91.0531 223.997 81.7451 222.14 73.0624 218.536C64.3797 214.932 56.4927 209.652 49.8525 202.997C43.2124 196.342 37.9493 188.444 34.3643 179.753C30.7794 171.063 28.943 161.751 28.9601 152.35C28.9858 138.209 33.2029 124.393 41.0784 112.648C48.9539 100.903 60.1343 91.7568 73.2066 86.3644C86.2789 80.9719 100.656 79.5756 114.522 82.352C128.388 85.1285 141.119 91.9529 151.107 101.963C161.096 111.973 167.892 124.719 170.638 138.591C173.384 152.463 171.957 166.837 166.536 179.897C161.115 192.958 151.944 204.118 140.182 211.968ZM110.428 98.9629C107.557 97.854 104.493 97.3343 101.417 97.4347C98.3316 97.3366 95.2579 97.8597 92.3786 98.973C89.4993 100.086 86.8731 101.767 84.6562 103.915L82.9125 101.313C87.9103 96.6151 94.5605 94.0804 101.417 94.2595C108.259 94.0943 114.893 96.6171 119.896 101.287L118.126 103.889C115.916 101.747 113.298 100.072 110.428 98.9629ZM101.599 103.681C105.717 103.606 109.747 104.876 113.077 107.299C113.668 107.77 114.225 108.283 114.743 108.834L116.512 106.232C112.468 102.476 107.117 100.45 101.599 100.584C98.8069 100.513 96.0282 100.996 93.4238 102.006C90.8194 103.015 88.4409 104.531 86.426 106.466L88.2218 109.068C88.7907 108.413 89.4276 107.82 90.1217 107.299C93.4519 104.876 97.4817 103.606 101.599 103.681ZM111.281 113.857C108.576 111.433 105.049 110.13 101.417 110.214C97.7748 110.113 94.2334 111.418 91.5271 113.857L89.7574 111.255C92.9988 108.479 97.1504 106.996 101.417 107.09C105.674 107.005 109.815 108.487 113.051 111.255L111.281 113.857ZM79.6852 178.454V157.894H82.6522V201.227L80.6742 202.32V205.782H100.168V202.32L98.1898 201.227V187.928H103.812V201.253L101.651 202.32V205.782H120.989V202.32L119.323 201.227V158.076H122.134V178.454C121.154 179.666 120.597 181.165 120.546 182.723C120.534 183.683 120.735 184.635 121.136 185.508C121.537 186.381 122.126 187.154 122.863 187.772L124.606 185.976C124.065 185.565 123.636 185.024 123.361 184.402C123.087 183.78 122.974 183.098 123.035 182.421C123.097 181.744 123.329 181.094 123.711 180.531C124.092 179.969 124.611 179.512 125.217 179.205C125.824 178.898 126.499 178.751 127.178 178.776C127.858 178.802 128.519 179 129.101 179.352C129.683 179.703 130.166 180.197 130.504 180.787C130.842 181.377 131.025 182.043 131.035 182.723C131.032 183.349 130.888 183.967 130.613 184.531C130.338 185.094 129.94 185.588 129.447 185.976L131.217 187.772C131.941 187.144 132.522 186.369 132.922 185.498C133.321 184.627 133.53 183.681 133.533 182.723C133.495 181.188 132.976 179.704 132.05 178.48V146.52C132 145.933 131.737 145.383 131.31 144.976C130.883 144.569 130.323 144.331 129.734 144.308H72.0856C71.4939 144.337 70.9331 144.58 70.5071 144.992C70.0811 145.404 69.8189 145.956 69.7692 146.546V178.454C68.7766 179.652 68.2498 181.168 68.2857 182.723C68.2894 183.679 68.5007 184.624 68.9051 185.491C69.3095 186.359 69.8974 187.128 70.6281 187.746L72.3719 185.976C71.83 185.565 71.4016 185.024 71.1268 184.402C70.8519 183.78 70.7398 183.098 70.8009 182.421C70.862 181.744 71.0944 181.094 71.4761 180.531C71.8578 179.969 72.3763 179.512 72.9829 179.205C73.5895 178.898 74.2642 178.751 74.9436 178.776C75.623 178.802 76.2847 179 76.8664 179.352C77.4482 179.703 77.931 180.197 78.2693 180.787C78.6076 181.377 78.7903 182.043 78.8003 182.723C78.8034 183.35 78.6618 183.97 78.3865 184.535C78.1111 185.099 77.7095 185.592 77.2127 185.976L78.9825 187.772C79.7091 187.146 80.2922 186.371 80.692 185.5C81.0917 184.629 81.2987 183.681 81.2988 182.723C81.2527 181.16 80.6847 179.657 79.6852 178.454ZM115.731 117.137H86.452C86.1649 117.143 85.8819 117.207 85.6193 117.323C85.3566 117.439 85.1194 117.606 84.9212 117.814C84.723 118.021 84.5677 118.266 84.4642 118.534C84.3607 118.802 84.311 119.088 84.3179 119.375V138.79C84.3144 139.074 84.3669 139.356 84.4723 139.619C84.5777 139.882 84.734 140.123 84.9321 140.326C85.1303 140.529 85.3665 140.691 85.6273 140.802C85.8881 140.914 86.1683 140.973 86.452 140.977H115.731C116.323 140.984 116.894 140.759 117.322 140.35C117.75 139.942 118.001 139.382 118.022 138.79V119.375C118.008 118.776 117.761 118.207 117.333 117.789C116.905 117.371 116.33 117.136 115.731 117.137ZM91.4928 130.789C92.13 131.202 92.8762 131.414 93.6353 131.399V131.503C94.6316 131.489 95.5821 131.082 96.2793 130.37C96.9766 129.658 97.364 128.7 97.357 127.703C97.3777 126.944 97.1705 126.197 96.7622 125.556C96.354 124.916 95.7633 124.413 95.0664 124.112C94.3696 123.811 93.5984 123.725 92.8525 123.866C92.1065 124.007 91.4199 124.369 90.8811 124.904C90.3424 125.439 89.9763 126.123 89.83 126.868C89.6837 127.613 89.7639 128.384 90.0602 129.083C90.3566 129.782 90.8556 130.376 91.4928 130.789ZM105.956 130.37C105.259 129.658 104.872 128.7 104.879 127.703C104.879 126.948 105.104 126.211 105.525 125.584C105.946 124.958 106.544 124.471 107.243 124.186C107.942 123.901 108.71 123.83 109.449 123.983C110.188 124.136 110.865 124.506 111.393 125.045C111.921 125.584 112.277 126.269 112.414 127.011C112.552 127.753 112.466 128.519 112.166 129.212C111.866 129.905 111.367 130.493 110.732 130.901C110.097 131.309 109.355 131.519 108.6 131.503C107.604 131.489 106.653 131.082 105.956 130.37ZM95.2024 128.752C95.4143 128.443 95.53 128.078 95.5352 127.703C95.5459 127.448 95.5028 127.193 95.4087 126.955C95.3145 126.718 95.1714 126.503 94.9886 126.324C94.8111 126.147 94.5998 126.007 94.3673 125.913C94.1349 125.819 93.8859 125.773 93.6353 125.777C93.2606 125.777 92.8943 125.888 92.5825 126.096C92.2706 126.303 92.0271 126.599 91.8826 126.944C91.7381 127.29 91.699 127.671 91.7702 128.038C91.8414 128.406 92.0198 128.745 92.2829 129.011C92.546 129.278 92.8821 129.461 93.2489 129.537C93.6157 129.614 93.9969 129.58 94.3445 129.44C94.6921 129.3 94.9905 129.061 95.2024 128.752ZM106.777 128.506C106.695 128.247 106.669 127.973 106.7 127.703C106.669 127.433 106.695 127.16 106.777 126.901C106.858 126.641 106.994 126.402 107.175 126.199C107.355 125.996 107.577 125.834 107.825 125.723C108.073 125.611 108.342 125.554 108.613 125.554C108.885 125.554 109.154 125.611 109.402 125.723C109.65 125.834 109.871 125.996 110.052 126.199C110.233 126.402 110.368 126.641 110.45 126.901C110.532 127.16 110.558 127.433 110.526 127.703C110.558 127.973 110.532 128.247 110.45 128.506C110.368 128.765 110.233 129.004 110.052 129.207C109.871 129.41 109.65 129.573 109.402 129.684C109.154 129.795 108.885 129.853 108.613 129.853C108.342 129.853 108.073 129.795 107.825 129.684C107.577 129.573 107.355 129.41 107.175 129.207C106.994 129.004 106.858 128.765 106.777 128.506Z" fill="white"/>
</svg>

<svg xmlns="http://www.w3.org/2000/svg" width="201" height="305" fill="none"><path fill="#E03131" d="M0 0h201v305H0z"/><path fill="#fff" fill-rule="evenodd" d="M140.182 211.968A71.52 71.52 0 1 1 60.777 92.992a71.52 71.52 0 0 1 79.405 118.976ZM110.428 98.963a22.931 22.931 0 0 0-9.011-1.528 23.033 23.033 0 0 0-16.76 6.48l-1.745-2.602a26.025 26.025 0 0 1 18.505-7.053 26.156 26.156 0 0 1 18.479 7.027l-1.77 2.602a22.944 22.944 0 0 0-7.698-4.926Zm-8.829 4.718a18.923 18.923 0 0 1 11.478 3.618c.591.471 1.148.984 1.666 1.535l1.769-2.602a21.157 21.157 0 0 0-14.913-5.648 21.125 21.125 0 0 0-15.173 5.882l1.796 2.602a12.283 12.283 0 0 1 1.9-1.769 18.922 18.922 0 0 1 11.477-3.618Zm9.682 10.176a14.286 14.286 0 0 0-9.864-3.643 14.186 14.186 0 0 0-9.89 3.643l-1.77-2.602a17.338 17.338 0 0 1 11.66-4.165 17.365 17.365 0 0 1 11.634 4.165l-1.77 2.602Zm-31.596 64.597v-20.56h2.967v43.333l-1.978 1.093v3.462h19.494v-3.462l-1.978-1.093v-13.299h5.622v13.325l-2.161 1.067v3.462h19.338v-3.462l-1.666-1.093v-43.151h2.811v20.378a7.162 7.162 0 0 0-1.588 4.269 6.48 6.48 0 0 0 2.317 5.049l1.743-1.796a4.018 4.018 0 0 1-1.571-3.555 4.017 4.017 0 0 1 2.182-3.216 4.01 4.01 0 0 1 5.818 3.518 4.17 4.17 0 0 1-1.588 3.253l1.77 1.796a6.725 6.725 0 0 0 2.316-5.049 7.334 7.334 0 0 0-1.483-4.243v-31.96a2.417 2.417 0 0 0-2.316-2.212H72.086a2.442 2.442 0 0 0-2.317 2.238v31.908a6.458 6.458 0 0 0-1.483 4.269 6.61 6.61 0 0 0 2.342 5.023l1.744-1.77a4.008 4.008 0 1 1 6.428-3.253 4.09 4.09 0 0 1-1.587 3.253l1.77 1.796a6.674 6.674 0 0 0 2.316-5.049 7.004 7.004 0 0 0-1.614-4.269Zm36.046-61.317H86.452a2.174 2.174 0 0 0-1.53.677 2.173 2.173 0 0 0-.604 1.561v19.415a2.158 2.158 0 0 0 2.134 2.187h29.279a2.264 2.264 0 0 0 2.291-2.187v-19.415a2.29 2.29 0 0 0-2.291-2.238Zm-24.238 13.652a3.8 3.8 0 0 0 2.142.61v.104a3.774 3.774 0 0 0 3.722-3.8 3.802 3.802 0 0 0-4.504-3.837 3.8 3.8 0 0 0-1.36 6.923Zm14.463-.419a3.773 3.773 0 0 1-1.077-2.667 3.8 3.8 0 1 1 3.721 3.8 3.775 3.775 0 0 1-2.644-1.133Zm-10.754-1.618c.212-.309.328-.674.333-1.049a1.827 1.827 0 0 0-.546-1.379 1.876 1.876 0 0 0-1.354-.547 1.897 1.897 0 0 0-1.752 1.167 1.9 1.9 0 0 0 3.32 1.808Zm11.575-.246a1.932 1.932 0 0 1-.077-.803 1.927 1.927 0 0 1 3.75-.802c.082.259.108.532.076.802a1.915 1.915 0 0 1-.474 1.504 1.925 1.925 0 0 1-3.275-.701Z" clip-rule="evenodd"/></svg>
